public/icon.svg

<svg width="81" height="81" viewBox="0 0 81 81" fill="none" xmlns="http://www.w3.org/2000/svg">
<g clip-path="url(#clip0)">
<path d="M3.31201 40.3553L22.312 51.2553L41.112 40.2553L3.31201 40.3553Z" fill="#0098A0"/>
<path d="M41.1121 40.5553L41.2121 62.2553L41.1121 40.5553L22.4121 73.1553L41.4121 62.2553L59.9121 72.6553L41.2121 40.4553L41.1121 40.5553Z" fill="#28D9DD"/>
<path d="M60.4122 51.1553L41.4122 40.2553H41.3122L41.2122 40.4553L59.9122 72.6553L60.4122 51.1553Z" fill="#1EBC69"/>
<path d="M41.2122 40.3553L41.0122 18.3553L41.1122 40.1553L41.2122 40.3553L41.4122 40.1553L59.7122 8.15531L41.2122 18.2553L22.2122 7.75531L41.0122 40.0553L41.2122 40.3553Z" fill="#1EBC69"/>
<path d="M41.112 40.2553L22.312 51.2553L22.412 73.1553L41.212 40.3553L41.112 40.2553Z" fill="#0098A0"/>
<path d="M22.4121 8.0553L22.5121 29.5553L41.2121 40.3553L22.4121 8.0553Z" fill="#28D9DD"/>
<path d="M41.012 40.0553L22.312 29.3553L3.31201 40.3553H41.212L41.012 40.0553Z" fill="#1EBC69"/>
<path d="M59.8122 8.0553L41.2122 40.3553L60.5122 50.9553L77.9122 39.8553L60.1122 29.4553L59.8122 8.0553Z" fill="#0098A0"/>
<path d="M40.6121 47.3553C44.4781 47.3553 47.6121 44.2213 47.6121 40.3553C47.6121 36.4894 44.4781 33.3553 40.6121 33.3553C36.7461 33.3553 33.6121 36.4894 33.6121 40.3553C33.6121 44.2213 36.7461 47.3553 40.6121 47.3553Z" fill="white"/>
<path d="M78.5121 39.3553C78.4121 39.1553 78.4121 38.9553 78.3121 38.8553C78.0121 38.3553 77.6121 37.9553 77.1121 37.6553L61.1121 28.4553L61.0121 9.9553C61.0121 9.4553 60.9121 8.8553 60.6121 8.4553C60.3121 7.9553 59.9121 7.6553 59.5121 7.3553C59.4121 7.2553 59.3121 7.2553 59.1121 7.1553C58.2121 6.8553 57.3121 6.8553 56.5121 7.3553L40.5121 16.6553L24.5121 7.4553C24.0121 7.1553 23.5121 7.0553 23.0121 7.0553C22.5121 7.0553 22.0121 7.1553 21.5121 7.4553C20.5121 7.9553 20.0121 8.9553 20.0121 10.0553V28.5553L4.11206 37.7553C3.71206 37.9553 3.31206 38.3553 3.11206 38.7553C2.81206 39.2553 2.61206 39.6553 2.61206 40.1553C2.61206 40.2553 2.61206 40.3553 2.61206 40.3553V40.5553C2.61206 40.9553 2.71206 41.3553 2.91206 41.6553C3.21206 42.1553 3.61206 42.5553 4.11206 42.8553L20.1121 52.0553V70.5553C20.1121 71.6553 20.7121 72.6553 21.6121 73.1553C22.1121 73.4553 22.6121 73.5553 23.1121 73.5553C23.6121 73.5553 24.2121 73.4553 24.6121 73.1553L40.6121 63.8553L56.6121 73.0553C57.0121 73.2553 57.5121 73.3553 57.9121 73.4553C58.1121 73.4553 58.2121 73.4553 58.4121 73.4553C58.8121 73.4553 59.3121 73.2553 59.6121 73.0553C60.0121 72.8553 60.3121 72.5553 60.5121 72.1553L60.6121 72.0553C60.9121 71.5553 61.1121 70.9553 61.1121 70.3553V52.1553L77.0121 42.8553C77.4121 42.6553 77.8121 42.2553 78.1121 41.8553C78.2121 41.6553 78.3121 41.4553 78.4121 41.1553C78.5121 40.8553 78.5121 40.5553 78.5121 40.2553C78.6121 39.9553 78.6121 39.6553 78.5121 39.3553ZM58.0121 12.9553V28.3553L46.9121 34.7553C46.6121 34.3553 46.3121 34.0553 45.9121 33.7553L58.0121 12.9553ZM42.0121 19.2553L55.4121 11.4553L43.4121 32.3553C42.9121 32.1553 42.5121 32.0553 42.0121 31.9553V19.2553ZM39.0121 19.2553V32.0553C38.5121 32.1553 38.1121 32.2553 37.6121 32.4553L25.6121 11.4553L39.0121 19.2553ZM35.0121 33.9553C34.7121 34.2553 34.3121 34.5553 34.1121 34.9553L23.0121 28.5553V13.0553L35.0121 33.9553ZM21.5121 31.1553L32.6121 37.4553C32.4121 37.8553 32.3121 38.3553 32.2121 38.7553H8.31206L21.5121 31.1553ZM21.5121 49.5553L8.01206 41.7553H32.2121C32.3121 42.2553 32.4121 42.6553 32.6121 43.1553L21.5121 49.5553ZM23.1121 67.7553V52.2553C23.1121 52.2553 23.1121 52.2553 23.1121 52.1553L34.1121 45.7553C34.4121 46.1553 34.7121 46.4553 35.1121 46.7553L23.1121 67.7553ZM25.7121 69.1553L37.7121 48.2553C38.1121 48.4553 38.5121 48.5553 39.0121 48.5553V61.3553L25.7121 69.1553ZM42.1121 61.4553L42.0121 61.3553V48.6553C42.5121 48.5553 42.9121 48.4553 43.3121 48.3553L55.3121 68.9553L42.1121 61.4553ZM46.0121 46.8553C46.4121 46.5553 46.8121 46.1553 47.1121 45.7553L58.2121 52.0553V67.7553L46.0121 46.8553ZM59.6121 49.5553L48.6121 43.1553C48.8121 42.7553 48.9121 42.2553 49.0121 41.7553H73.0121L59.6121 49.5553ZM48.9121 38.7553C48.8121 38.2553 48.7121 37.8553 48.5121 37.3553L59.5121 30.9553L73.0121 38.7553H48.9121Z" fill="black"/>
<path d="M40.6121 45.8553C43.6496 45.8553 46.1121 43.3929 46.1121 40.3553C46.1121 37.3178 43.6496 34.8553 40.6121 34.8553C37.5745 34.8553 35.1121 37.3178 35.1121 40.3553C35.1121 43.3929 37.5745 45.8553 40.6121 45.8553Z" fill="white"/>
</g>
<defs>
<clipPath id="clip0">
<rect x="2.61206" y="6.95532" width="76" height="66.8" fill="white"/>
</clipPath>
</defs>
</svg>

<svg xmlns="http://www.w3.org/2000/svg" width="81" height="81" fill="none"><g clip-path="url(#a)"><path fill="#0098A0" d="m3.312 40.355 19 10.9 18.8-11z"/><path fill="#28D9DD" d="m41.112 40.555.1 21.7zl-18.7 32.6 19-10.9 18.5 10.4-18.7-32.2z"/><path fill="#1EBC69" d="m60.412 51.155-19-10.9h-.1l-.1.2 18.7 32.2z"/><path fill="#1EBC69" d="m41.212 40.355-.2-22 .1 21.8zl.2-.2 18.3-32-18.5 10.1-19-10.5 18.8 32.3z"/><path fill="#0098A0" d="m41.112 40.255-18.8 11 .1 21.9 18.8-32.8z"/><path fill="#28D9DD" d="m22.412 8.055.1 21.5 18.7 10.8z"/><path fill="#1EBC69" d="m41.012 40.055-18.7-10.7-19 11h37.9z"/><path fill="#0098A0" d="m59.812 8.055-18.6 32.3 19.3 10.6 17.4-11.1-17.8-10.4z"/><path fill="#fff" d="M40.612 47.355a7 7 0 1 0 0-14 7 7 0 0 0 0 14"/><path fill="#000" d="M78.512 39.355c-.1-.2-.1-.4-.2-.5q-.45-.75-1.2-1.2l-16-9.2-.1-18.5c0-.5-.1-1.1-.4-1.5-.3-.5-.7-.8-1.1-1.1-.1-.1-.2-.1-.4-.2-.9-.3-1.8-.3-2.6.2l-16 9.3-16-9.2c-.5-.3-1-.4-1.5-.4s-1 .1-1.5.4c-1 .5-1.5 1.5-1.5 2.6v18.5l-15.9 9.2c-.4.2-.8.6-1 1-.3.5-.5.9-.5 1.4v.4c0 .4.1.8.3 1.1q.45.75 1.2 1.2l16 9.2v18.5c0 1.1.6 2.1 1.5 2.6.5.3 1 .4 1.5.4s1.1-.1 1.5-.4l16-9.3 16 9.2c.4.2.9.3 1.3.4h.5c.4 0 .9-.2 1.2-.4q.6-.3.9-.9l.1-.1c.3-.5.5-1.1.5-1.7v-18.2l15.9-9.3c.4-.2.8-.6 1.1-1 .1-.2.2-.4.3-.7s.1-.6.1-.9q.15-.45 0-.9m-20.5-26.4v15.4l-11.1 6.4c-.3-.4-.6-.7-1-1zm-16 6.3 13.4-7.8-12 20.9c-.5-.2-.9-.3-1.4-.4zm-3 0v12.8c-.5.1-.9.2-1.4.4l-12-21zm-4 14.7c-.3.3-.7.6-.9 1l-11.1-6.4v-15.5zm-13.5-2.8 11.1 6.3c-.2.4-.3.9-.4 1.3h-23.9zm0 18.4-13.5-7.8h24.2c.1.5.2.9.4 1.4zm1.6 18.2v-15.6l11-6.4c.3.4.6.7 1 1zm2.6 1.4 12-20.9c.4.2.8.3 1.3.3v12.8zm16.4-7.7-.1-.1v-12.7c.5-.1.9-.2 1.3-.3l12 20.6zm3.9-14.6c.4-.3.8-.7 1.1-1.1l11.1 6.3v15.7zm13.6 2.7-11-6.4c.2-.4.3-.9.4-1.4h24zm-10.7-10.8c-.1-.5-.2-.9-.4-1.4l11-6.4 13.5 7.8z"/><path fill="#fff" d="M40.612 45.855a5.5 5.5 0 1 0 0-11 5.5 5.5 0 0 0 0 11"/></g><defs><clipPath id="a"><path fill="#fff" d="M2.612 6.955h76v66.8h-76z"/></clipPath></defs></svg>
